X:1
T:A Night Off
T:A Night Off
T:March and Two-Step.
T:George Rosey
T:Copyright 1898 by G.M. Rosenberg
T:Copyright 1898 by G.M. Rosenberg
T:Copyright 1898 by G.M. Rosenberg
T:Copyright 1898 by G.M. Rosenberg
T:Copyright 1898 by G.M. Rosenberg
T:Copyright 1898 by G.M. Rosenberg
C:Geoorge Rosey
Z:Copyright 1898 by G.M. Rosenberg
%%score { ( 1 4 ) | ( 2 3 ) }
L:1/8
Q:1/4=160
M:6/8
K:C
V:1 treble nm="Piano" snm="Pno."
V:4 treble 
V:2 bass 
V:3 bass 
V:1
!ff! cdc BcB | A2 B c2 ([A^c] | [Ad]2 [A^ce] [Adf]2 [dfa] | [dfg]2) z !>![gbd'g']2 z |: %4
!mf! czc (gag) | czc (gag) | e!<(!fg efg!<)! |!>(! [Bf]6!>)! |!mf! BzB (gag) | BzB (gag) | %10
 f!<(!ga fga!<)! |!>(!{/a} e3- e2 z!>)! | [c^f]z[cf] [ce]z[ce] | (^fgf) [ce]z[ce] | %14
!<(! [Bd]z[db]!<)!!f! (!^!_e>=fe) | d3- d2 z | e^de ^f!<(!^ef | g^fg ^a^ga!<)! | %18
 !^![d=fb]z[cea] [Bfg]z(G,/A,/ | B,2 A, G,2) z :: !arpeggio!!^![cegc'] z z!ff! !^![ca]3 | %21
 gag (d2 a) | gag (e2 d) |{/e} dzc cz!p!(3g/a/g/ | dzg dzg | czB Bz(3g/a/g/ | ezg ezg | dzc ceg | %28
 !arpeggio!!^![cegc'] z z!ff! !^![ca]3 | gag (d2 a) | gag ([Be]2 [Bd]) | [Bd]z[Ac] [Ac]zG | %32
 A2 B!<(! c2 d | e2 f g2!<)! [c_ea] | [cd] z z !^![Bg]3 |1 [Gc]!<(!zc ceg!<)! :|2 %36
 [Gc] z z [cegc'] z ||[K:F]!p! c | (fef) [Ac]z[Ad] | [Ae]z[Af] [Ad]z[Af] | [Ae]z[Af] [Ad]z[Af] | %41
 [Be]6 | (efg) [Bd]z[Bd] | [Bd]6 | (def) [Ac]z[Ac] | [Ac]3- [Ac]2 c | (fef) [Ac]z[Ad] | %47
 [Ae]z[Af] [Ad]z[Af] | [Ae]z[Af] [_Ad]z[Af] | [Ge]3- [Ge]z(e/f/) | !^!g3 !^!d3 | !^!e3 !^!f3 | %52
 !^![Aa]3 !^![Gg]3 | (ege) ([Bd]2 [Bc]) ||!f! ([Af]ef) [Ac]z[Ad] | [Ae]z[Af] [Ad]z[Af] | %56
 [Ae]z[Af] [Ad]z[Af] | [Be]6 | (efg) [Bd]z[Bd] | [Bd]6 | (def) [Ac]z[Ac] | [Ac]3- [Ac]2 c | %62
 (fef) (([Aa]2 [Gg])) | (([Gg]2 [^F^f])) [Ff]2 d |!<(! !^![Gg]3 !^![Aa]3!<)! | [Bfb]2 z (!^!f2 g) | %66
 agf agf |!<(! agf agf | def [eg]2 [ea]!<)! | f2 z !>![fac'f']2 (3a/=b/^c'/ | d' z z !^!=c3 | %71
 BcB A2 z |!mf! [fa]z[fa=b] [fab]z[fa^c'] | [fa^c']z[fad'] [fad']3 | z A=B ^cde | %75
 fze d2!<(! [Adf] | [A^ce]2 [Ac] [^Ge]2 [G=B] | [Ae]2!<)! z!f!!8va(! [a^c'e'a']2!8va)! (3g/a/=b/ | %78
 =c' z z !^!=B3 | A=BA G2 z | [eg]z[ega] [ega]z[eg=b] | [eg=b]z[egc'] [egc'] z z | %82
 z2!f! (c/d/ e) z z | z2 ([ce]/[df]/ [eg])zG | c!<(!Gc ece | g2!<)! z !^![cegc']zc' | %86
!8va(! [ff'][ee'][ff'] [cac']z[dad'] | [eae']z[faf'] [dad']z[faf'] | [eae']z[faf'] [dad']z[faf'] | %89
 [ebe']6 | [ee'][ff'][gg'] [dbd']z[dbd']!8va)! |!8va(! [dbd']6 | [dd'][ee'][ff'] [cac']z[cac'] | %93
 [cac']3- [cac']2!8va)! c | fef (([Aa]2 [Gg])) | (([Gg]2 [^F^f])) [Ff]2 d | !^![Gg]3 !^![Aa]3 | %97
 [Bdb]2 z (!^!f2 g) | agf agf | agf agf | def [eg]2 [ea] | f2 z !^![fac'f']2 z |] %102
V:2
 CDC B,CB, | A,2 B, C2[K:treble] (G | F2 E D2 =C | B,2) z[K:bass] !>![G,,,G,,]2 z |: %4
 C,z[E,G,C] G,,z[F,G,B,] | C,z[E,G,C] G,,z[F,G,B,] | C,z[E,G,C] ^C,3 | D,z[F,G,=B,] G,,zF, | %8
 D,z[F,G,B,] G,,z[F,G,B,] | D,z[F,G,B,] G,,z[F,G,B,] | D,z[F,G,B,] G,,z[F,G,B,] | %11
 C,z[E,G,C] C,z[E,G,C] | A,z[CD] D,z[CD] | A,z[CD] D,z[CD] | G,z[B,D] !^![G,_B,_E]2 [G,B,E] | %15
 [G,=B,D]2 [G,B,D] [G,B,D]2 z | C,z[G,C] ^D,z[A,B,] | E,z[G,B,] =D,z[^F,C] | !^!G,,zD Gz(G,,/A,,/ | %19
 B,,2 A,, G,,2) z :: !^![C,,C,]zG, !^![^D^F]3 | z2 z G,3 | D,z[F,G,B,] G,,z[F,G,B,] | %23
 C,z[E,G,C] [E,G,C] z z | C,z[E,G,C] G,,z[E,G,C] | D,z[F,G,B,] G,,z[F,G,B,] | %26
 D,z[F,G,B,] G,,z[F,G,B,] | C,z[E,G,C] [E,G,C]2 [E,G,C] | !^![C,,C,]zG, !^![^D^F]3 | z2 z G,3 | %30
 D,z[F,G,B,] (([G,G]2 [^G,F])) | [A,E]z[A,E] [A,E]z[E,,E,] | [F,,F,]2 [G,,G,] [A,,A,]2 [B,,B,] | %33
 [C,C]2 [D,D] [E,E]2 [^F,,^F,] | [G,,G,] z z !^![G,DF]3 |1 [CE] z z z2 z :|2 [CE] z z [C,,C,] z || %37
[K:F] z | F,z[A,C] C,z[A,C] | F,z[A,C] C,z[A,C] | F,z[A,C] C,z[A,C] | G,z[B,C] C,z[B,C] | %42
 G,z[B,C] C,z[B,C] |"_marcato" (EFG) D2 D | F,z[A,C] C,z[A,C] |"_marcato" (DEF) C2 C | %46
 F,z[A,C] C,z[A,C] | F,z[A,C] C,z[A,C] | F,z[A,C] F,z[_A,C] | G,,z[E,G,C] [E,G,C] z z | %50
 [G,,G,]2 z !^![F,F]3 | !^![E,E]3 !^![D,D]3 | !^![C,C]z[B,CE] [B,CE]z[B,CE] | C, z [B,CE] C,D,E, || %54
 F,z[A,C] C,z[A,C] | F,z[A,C] C,z[A,C] | F,z[A,C] C,z[A,C] | G,z[B,C] C,z[B,C] | %58
 G,z[B,C] C,z[B,C] | (EFG) D2 D | F,z[A,C] C,z[A,C] | (DEF) C2 C | F,z[A,C]xz[A,C] | %63
xz[A,C]xz[D,^F,A,] |xz[D,G,]xz[D,^F,] | [G,,D,G,]2 z [_D,_A,=B,]3 | C,2 [=A,C] [=B,D]2 [B,D] | %67
 [_B,_D]2 [B,D] [A,C]2 [A,C] | G, z [=B,D] C, z [_B,C] | [F,A,C]2 z !>![F,,F,]2 z | %70
 [D,,F,,A,,D,] z z !^!C3 | B,CB, A,2 z | D,z[F,A,D] [F,A,D]zA,, | D,z[F,A,D] [F,A,D]zA,, | %74
 ^C,z[G,A,] A,,z[G,A,] | D,z[F,A,] (=B,,2 =B,) | (E,2 E) [E,D]2 [E,D] | [A,^C]2 z [A,,,A,,]2 z | %78
 [=C,,E,,G,,=C,] z z !^!=B,3 | A,=B,A, G,2 z | C,z[E,G,C] [E,G,C]zG,, | C,z[E,G,C] [E,G,C]zG, | %82
 !^!C3- CzG, | !^!C3- CzG, | CG,C ECE | G2 z !^![C,,C,] z z | F,z[A,C] C,z[A,C] | %87
 F,z[A,C] C,z[A,C] | F,z[A,C] C,z[A,C] | G,z[B,C] C,z[B,C] | G,z[B,C] C,z[B,C] | %91
 G,z[B,C] C,z[B,C] | F,z[A,C] C,z[A,C] | F,z[A,C] C,z[A,C] | F,z[A,C] _E,z[A,C] | %95
xz[A,C]xz[D,^F,A,] |xz[D,G,]xz[D,^F,] | [G,,D,G,]2 z !^![_D,_A,=B,]3 | C,2 [=A,C] [=B,D]2 [B,D] | %99
 [_B,_D]2 [B,D] [A,C]2 [A,C] | G,z[=B,D] C,z[_B,C] | [F,A,C]2 z !^![F,,,F,,]2 z |] %102
V:3
 x6 | x5[K:treble] x | x6 | x3[K:bass] x3 |: x6 | x6 | x3 z2 [E,G,_B,] | x6 | x6 | x6 | x6 | x6 | %12
 x6 | x6 | x6 | x6 | x6 | x6 | x6 | x6 :: x6 | [=D=F]6 | x6 | x6 | x6 | x6 | x6 | x6 | x6 | %29
 [=D=F]6 | x6 | x6 | x6 | x6 | x6 |1 x6 :|2 x5 ||[K:F] x | x6 | x6 | x6 | x6 | x6 | x6 | x6 | x6 | %46
 x6 | x6 | x6 | x6 | x6 | x6 | x6 | x6 || x6 | x6 | x6 | x6 | x6 | x6 | x6 | x6 | x3 _E,3 | %63
 D,3 C,3 | B,,3 A,,3 | x6 | x6 | x6 | x6 | x6 | x6 | x6 | x6 | x6 | x6 | x3 =B,,2 x | x6 | x6 | %78
 x6 | x6 | x6 | x6 | x6 | x6 | x6 | x6 | x6 | x6 | x6 | x6 | x6 | x6 | x6 | x6 | x3 _E,3 | %95
 D,3 C,3 | B,,3 A,,3 | x6 | x6 | x6 | x6 | x6 |] %102
V:4
 x6 | x6 | x6 | x6 |: x6 | x6 | x6 | x6 | x6 | x6 | x6 | x6 | x6 | x6 | x6 | x6 | x6 | x6 | x6 | %19
 x6 :: x6 | B6 | x6 | x6 | x6 | x6 | x6 | x6 | x6 | B6 | x6 | x6 | x6 | x6 | z GG z GG |1 x6 :|2 %36
 x5 ||[K:F] x | x6 | x6 | x6 | x6 | x6 | x6 | x6 | x6 | x6 | x6 | x6 | x6 | z2 [G=B] z2!<(! [GB] | %51
 z2 [G=B] z2 [GB] | x3!<)! x3 | x6 || x6 | x6 | x6 | x6 | x6 | x6 | x6 | x6 | x6 | x6 | z2 d z2 d | %65
 x6 | x6 | x6 | x6 | x6 | x6 | x6 | x6 | x6 | x6 | x6 | x6 | x3!8va(! x2!8va)! x | x6 | x6 | x6 | %81
 x6 | x6 | x6 | x6 | x6 |!8va(! x6 | x6 | x6 | x6 | x6!8va)! |!8va(! x6 | x6 | x5!8va)! x | x6 | %95
 x6 | z2 d z2 d | x6 | x6 | x6 | x6 | x6 |] %102

